X:1
T:Symphony No. 4 in B Flat Major
T:Ludwig van Beethoven
T:Adp. from arrangements by Ernst Pauer and Franz Liszt
T:2nd Movement
%%score { ( 1 3 5 ) | ( 2 4 6 ) }
L:1/8
Q:1/4=42
M:3/4
K:Eb
V:1 treble nm="Piano"
V:3 treble 
V:5 treble 
V:2 bass 
V:4 bass 
V:6 bass 
V:1
"^Adagio" [G,E]/z/4B,/4E/z/4B,/4 E/z/4B,/4E/z/4B,/4 E/ z/ z |!p! e2 d2!p! c2 | %2
!p! B3!p! A [EG]A/>F/ | E2!p! DE FG/=A/ | =A2 B2!mf! =B>c |!p! [Cc] F3- F/F/G/A/ | %6
 A D2 E F/G/A/c/ | c B2!mp! c/>B/ B!mf!c/>B/ | %8
!f! [EGB]/ z/4 .B,/4.E/z/4.B,/4 .E/z/4.[B,B]/4.[Ee]/z/4.[B,B]/4 .[Ee]/ z/4 .[Bb]/4.[ee']/z/4.[Bb]/4 | %9
!p! [ege']2 [dbd']2 [cac']2 | [Bdb]3 [Afa] [eg]a/>f/ | [Ee]2 [Dd][Ee] [Ff][Gg]/[=A=a]/ | %12
 [=Ace=a]2 [Bdb]2!mf! =b>c' |!p! [cc'] [Ff]3 [Ff]/[Ff]/[Gg]/[Aa]/ | %14
 [Aa] [Dd]2 [Ee] [Ff]/[Gg]/[Aa]/[cc']/ | [cc'] [Begb]2!mp! =e[fa]!mf![fa] | %16
!f! [B_egb]!ff![GBeg] z [GBeg] z/4 B/4G/4B/4e/4g/4e/4B/4 | %17
!f! [ABda]>f d/e/f/e/ [Bb]/[cc']/[Aa]/[Ff]/!p! | %18
!f! [Ee]!ff! [GBeg] z [GBeg] z/4 B/4G/4B/4e/4g/4e/4B/4 | %19
!f! [f=bd'f']>[dd'] [=Bb]/[cc']/[dd']/[Bb]/ [Gg]/[Aa]/[Ff]/d/!p! | %20
!f! [ce]!ff! [EGce] z [EGce] z/4 c/4G/4c/4e/4e/4e/4e/4 | %21
 e/4!pp!c/4=B/4c/4e/4c/4d/4_B/4 c/4=A/4B/4G/4A/4F/4G/4=E/4 F/4A/4B/4c/4d/4e/4f/4^f/4 | %22
!mp! g/4e/4d/4e/4g/4e/4=f/4d/4 e/4c/4d/4B/4c/4^A/4B/4G/4 A/4f/4!p![Ff]/4[Ff]/4[Ff]/4[Ff]/4[Ff]/4[Ff]/4 | %23
!p! [Ff]/4[Ff]/4[Ff]/4[Ff]/4[Ff]/4[Ff]/4[Ff]/4[Ff]/4 [Ff]/4[Ff]/4[Ff]/4[Ff]/4[Ff]/4[Ff]/4[Ff]/4[Ff]/4 [Ff]/4[Ff]/4[Ff]/4[Ff]/4[Ff]/4[Ff]/4[Ff]/4[Ff]/4 | %24
!mf! f/4f/4[Ff]/4[Ff]/4[Ff]/4[Ff]/4[Ff]/4[Ff]/4 [Ff]/4[Ff]/4[Ff]/4[Ff]/4[Ff]/4[Ff]/4[Ff]/4[Ff]/4!mf! [Ff]/4[Ff]/4[Ff]/4[Ff]/4.[Ff]/4.[Ff]/4.[Gg]/4!p!.[=A=a]/4 | %25
!p! b z c3!p! c |!p! c>d e2- ef/_g/ | %27
 (3[Fdf]/=e/f/!pp! (3z/ f/_a/ (3z/ a/g/ (3z/ g/f/!p! (6:4:3g3/2x!p!d/ | %28
 e/ x/ x x2!p! (6:4:3f3/2x!p!c/ | d/ x/ (3z/ B,/D/ (3z/ D/F/ (3z/ F/B/ (3z/ B/d/!p!d- | %30
 (3d/d/c/ (3z/ e/G/ B2 =A7/4f/4 | f4!mp! [df-]2 | %32
!f! [df][df-] (6:4:6[df]/[ce]/[=Bd]/[ce]/[df]/[eg]/ [_Bd][ce]/>[=Ac]/ | %33
!p! B z[K:bass] x!p! .D!p!.[B,D]!p!.[B,D] | %34
[K:treble]!p! E/4!pp!F/4E/4D/4E/4F/4G/4F/4 E/4F/4G/4E/4!p!C/4!pp!D/4E/4C/4!p! F>!p!E | %35
 D z z!p! .d!p!.[Bd]!p!.[Bd] | %36
!p! e/4!pp!f/4e/4d/4e/4f/4g/4f/4 e/4f/4g/4e/4!p!c/4!pp!d/4e/4c/4!p! F>!p!E | %37
 [Bd]2- [Bd]/ z/4 B,/4D/z/4B,/4 F/z/4D/4[B,B]/z/4F/4 | %38
!mf! .[Bd]/z/4.B/4.[Ff]/z/4.d/4 [Aa]2- [Aa]/ z/4 .b/4.[ff']/z/4.d'/4 | %39
!ff! [aa']2- [aa']/z/4.[ff']/4.[dd']/z/4.[Bb]/4 .[Aa]/z/4.[Ff]/4.[Dd]/z/4.[B,B]/4 | %40
!ff!!>(! .[EGe]/z/4.B,/4.E/z/4.B,/4 .E/z/4.B,/4.E/z/4.B,/4!mp! .E/ z/!>)! z | %41
 e2!p! d2!p!{/.d} (6:4:6c/=B/c/e/d/c/ | _B2!p! (6:4:6B/c/B/A/B/A/ (6:4:6G/A/G/B/A/F/ | %43
!p! (5:4:4E-E/F/E/ (3.D/.C/.D/{/.F}(3.E/.D/.E/{/.G} (6:4:6.F/.=E/.F/.^F/.G/.=A/ | %44
 (5:4:4=A-A/c/B/ (3B/A/B/ (3z/ A/B/ (3z/!mf! B/=B/ (3z/ B/c/ | %45
{/d} (3c/=B/c/F- (3F/=E/F/ (3z/ E/F/ (3z/ E/F/(3.F/.G/.A/ | %46
{/B} (3A/G/A/D- (3D/^C/D/ (3z/ D/E/ (3z/ =E/F/ (3z/ A/c/ | %47
 (3z/ c/B/!mp! (3z/ =A/B/ (3z/ A/B/ (3z/ c/B/!mf! (3z/ c/B/ (3z/ c/B/ | %48
!f! .[EGe]/z/4.[B,B]/4.[Ee]/z/4.[B,B]/4 .[Ee]/z/4.[B,B]/4.[Ee]/z/4.[B,B]/4 .[Ee]/z/4.[Bb]/4.[ee']/z/4.[Bb]/4 | %49
!ff! [e_gbe']2!fff! [_dea_d']2!fff! [_ceg_c']2 |!fff! [Bfb]2!fff! [B,EAB]2!fff! [B,_D_GB]2 | %51
 [_CFB]2!fff! [B,EB]2!fff! [B,=DB]2 | [B,EB]2!fff! [B,_DAB]2!fff! [_CE_G_c]2 | %53
 _C-C/4D/4F/4_G/4 A-A/4B/4A/4G/4 F-F/4E/4F/4G/4 | A-A/4=G/4A/4B/4 _c-c/4_d/4c/4B/4 A-A/4G/4A/4B/4 | %55
 _c/4A/4F/4A/4c/4e/4c/4A/4 F/ x/ x x2 | z/4 A/4F/4A/4_c/4e/4c/4A/4 F/ z/ x x2 | _c.c z .=c z ._d | %58
 z =d3 _d2 | [B_d]2 z4 |!p!!pp! _g2 f2 e2 | =d z z2 z2 | !arpeggio!a2!p! _g2!p! f2 | %63
 [Ee]2 B,2 z/4 .e/4.f/4.g/4.a/4.b/4.c'/4.d'/4 |!pp! [ege']2 [dbd']2{/d'} (6:4:6c'/=b/c'/e'/d'/c'/ | %65
 b2 (6:4:6b/c'/b/a/b/a/ (6:4:6g/a/g/b/a/f/ | %66
 e-(3e/f/e/ (3d/c/d/{/f}(3e/d/e/{/g} (3f/=e/f/(3[_e^f]/g/=a/ | %67
 [=Ace=a-]!pp!(3a/c'/b/!p! (3b/a/b/!mp! (3z/ [Aa]/[Bb]/!mf! (3z/ [Bb]/[=B=b]/!f! (3z/ [Bb]/[c-c']/ | %68
!p!{/d'} (3[cc']/[=B=b]/[cc']/[Ff]- (3[Ff]/[=E=e]/[Ff]/ (3z/ [Ee]/[Ff]/ (3z/ [Ee]/[Ff]/(3[Ff]/[Gg]/[Aa]/ | %69
{/b} (3[Aa]/[Gg]/[Aa]/[Dd]- (3[Dd]/[^C^c]/[Dd]/ (3z/ [Dd]/[Ee]/ (3z/ [=E=e]/[Ff]/ (3z/ [Aa]/[=cc']/ | %70
 (3z/ [cegc']/[Bb]/ (3z/ [=Aeg=a]/[Bb]/ (3z/ [Aega]/[Bb]/ (3z/ [c=egc']/!mf![Bb]/ (3z/ [cf_ac']/[Bb]/ (3z/ [cfc']/[Bb]/ | %71
!f! [Begb]!ff! [GBeg] E!ff! [GBeg] E!ff! [GBeg] | [ABda]>!p!f d/e/f/d/ [Bb]/[cc']/[Aa]/[Ff]/ | %73
!f! [Begb]!ff! [GBeg] E!ff! [GBeg] E!ff! [GBeg] | %74
 [_d=eg_d']>!p!b g/a/b/[gg']/ [=e=e']/[dd']/[cc']/[Bb]/ |!f! [Aa]!ff! [fa] z!ff! [fa] z!ff! [fa] | %76
!f! a2 x4 |!f! c'2 x4 |!p! [Bb]/[Bb]/[Bb]/!mp![Bb]/ [Bb]/[Bb]/b/!mf!b/ [Bb]/[Bb]/[Bb]/!f![Bb]/ | %79
 .[cc']/4.[Aa]/4.[Ff]/4.[Gg]/4.[Aa]/4.[Ff]/4.[Dd]/4.[Ee]/4 .[Ff]/4.[Dd]/4.A/4.B/4.c/4.B/4.A/4.G/4!f! .F/ .[B,B]/.[B,B]/.[Cc]/4!p!.[Dd]/4 | %80
!p! e2 f3 f | f>g a2- ab/_c'/ | (3x/!pp! =a/b/ (3z/ b/_d'/ (3z/ d'/c'/ (3z/ c'/b/ (6:4:3c'3/2xg/ | %83
 (3a/g/a/ (3z/ a/c'/ (3z/ c'/b/ (3z/ b/a/ (6:4:3b3/2xf/ | %84
 (3g/^f/g/ (3z/ B,/E/ (3z/ E/G/ (3z/ G/B/ g2- | (6:4:6g/x/f/z/a/c/ [Ee]2 [Dd]7/4[Bb]/4 | %86
 [Bb]4!p! [gb]2 |!p! b[gb] (6:4:6[Bgb]/[Afa]/[G=eg]/[Afa]/[Bgb]/[cac']/ [G_eg][Afa]/>[Fdf]/ | %88
 e/4 z3/4 z z .G.[EG].[EG] | A/4B/4A/4G/4A/4B/4A/4G/4 A/4B/4c/4A/4F/4G/4A/4F/4 B>A | %90
 e/4f/4e/4d/4e/4f/4g/4f/4 x .g.[eg].[eg] | a/4b/4a/4g/4a/4b/4c'/4a/4 x2 b>a | %92
 g x x2 G/4_A/4G/4F/4E/4A/4B/4G/4 | %93
 E/4F/4E/4D/4E/4F/4G/4E/4 B,/4C/4B,/4=A,/4B,/4D/4E/4B,/4 G,/4_A,/4G,/4F,/4G,/4A,/4B,/4G,/4 | %94
 [Ee]6 | [ee']2 [dd']2 [cc']2 | [Bb]3 [Aa] [Gg](3[Bfb]/[Aa]/[Ff]/ | [EGe] z G z B z | %98
 e/4B/4G/4[I:staff +1]E/4[I:staff -1]G/4B/4e/4g/4 b/4g/4e/4B/4e/4g/4b/4e'/4 .g'/4.f'/4.e'/4.d'/4.c'/4.b/4.a/4.g/4 | %99
 .f/4.e/4.d/4.c/4.B/4.A/4.G/4.F/4 E/4A/4[EA]/4[EA]/4[EA]/4[EA]/4[EA]/4[EA]/4 [EA]/4[Aea]/4[Aea]/4[Aea]/4[Aea]/4[Aea]/4[Aea]/4[Aea]/4 | %100
 [Aea]/4[Aea]/4[Aea]/4[Aea]/4[Aea]/4[Aea]/4[Aea]/4[Aea]/4!ff! [ABfa]/4[ABfa]/4[ABfa]/4[ABfa]/4[ABfa]/4[ABfa]/4[ABfa]/4[ABfa]/4 .[GBeg] z | %101
 z6 |!p! [A,B,DF] z!mf! [A,B,DF] z!ff! [dfabd'] z | [egbe'] z z2 z2 |] %104
V:2
!pp! [E,,E,] z z2 z3/4 B,/4E/z/4B,/4 | E,2!p! G,2 A,2 | B,2 CD z z3/4 A,/4 | G,2 F,E, D,C,/F,/ | %4
!pp! [B,,F,]"^cresc."!p![B,,F,][B,,F,][B,,F,]!mp!!ped! F, z!ped-up! | %5
!pp! .F,/z/4.C,/4.F,/z/4.C,/4 .F,/z/4.C,/4.F,/z/4.C,/4 F, z | %6
 z3/4 .F,/4.A,/z/4.F,/4 .A,/z/4.F,/4.G,/z/4.E,/4 [A,,C,]/z/4.[A,C]/4.[A,C]/z/4.[F,A,]/4 | %7
 z3/4!ped! [E,G,]/4"^cresc."B,/B,/!p! z3/4!ped-up! [=E,G,]/4B,/B,/!mp! z3/4 B,/4B,/B,/ | %8
 [E,,E,]/ z/4 .[B,,,B,,]/4.[E,,E,]/z/4.[B,,,B,,]/4 .[E,,E,]/z/4.[B,,,B,,]/4.[E,,E,]/z/4.[B,,,B,,]/4 .[E,,E,]/z/4.[B,,,B,,]/4.[E,,E,]/z/4.[B,,,B,,]/4 | %9
!pp!!ped! z3/4 [G,B,]/4.E/.E/!ped-up!!ped! z3/4 [G,B,]/4.D/.D/!ped-up!!ped! z3/4 A,/4.C/.C/!ped-up! | %10
!ped! z3/4 D/4.F/.F/ z3/4 B,/4F/F/!ped-up! [E,E][A,,A,] | %11
!ped! z3/4 B,/4B,/B,/!ped-up! A,/>B,/G,/B,/ D,/>B,/[C,E,]/F,/ | %12
!ped! [B,,F,]/z/4C/4.E/.E/!ped-up!!ped! [B,,F,]/z/4B,/4.D/.D/!ped-up! [D,F,]2 | %13
!pp! .[A,,F,]/z/4.C,/4.[A,,F,]/z/4.C,/4 .[A,,F,]/z/4.C,/4.[A,,F,]/z/4.C,/4 .F,/F,/G,/A,/ | %14
!ped! A,/z/4F,/4A,/z/4F,/4 A,/z/4F,/4!ped-up!G,/z/4E,/4 [A,,C,]/z/4.[A,C]/4.[A,C]/z/4.[F,A,]/4 | %15
!pp! z3/4!ped! [E,G,]/4B,/B,/!ped-up!!p!!ped! z3/4 [=E,G,]/4B,/B,/!ped-up!!mp!!ped! z3/4 B,/4B,/B,/!ped-up! | %16
!ped! [E,,E,]/4 B,,/4G,,/4B,,/4E,/4!f!G,/4E,/4!ped-up!B,,/4!ff! z/4!f! B,,/4G,,/4B,,/4E,/4G,/4E,/4B,,/4 z/4 B,,/4G,,/4B,,/4!ff!E,/4!f!G,/4E,/4B,,/4 | %17
!mf!!ped! z/4 D/4[A,B,]/4D/4!pp! z/4 D/4[A,B,]/4D/4 z/4 D/4[A,B,]/4D/4 z/4 D/4[A,B,]/4D/4 z/4 D/4[A,B,]/4D/4 z/4 D/4[A,B,]/4D/4!ped-up! | %18
!ped! [E,,E,]/4 B,,/4G,,/4B,,/4E,/4!f!G,/4E,/4B,,/4!ped-up! z/4 B,,/4G,,/4!ff!B,,/4!f!E,/4G,/4E,/4B,,/4 z/4 B,,/4G,,/4B,,/4!ff!E,/4!f!G,/4E,/4B,,/4 | %19
!mf!!ped! z/4 D/4=B,/4D/4!pp! z/4 D/4B,/4D/4 z/4 D/4B,/4D/4 z/4 D/4B,/4D/4 z/4 D/4B,/4D/4 z/4 D/4B,/4D/4!ped-up! | %20
!ped! z/4 C,/4G,,/4C,/4E,/4!f!G,/4E,/4C,/4!ped-up! z/4 C,/4G,,/4C,/4E,/4G,/4E,/4C,/4 z/4 C,/4G,,/4C,/4!ff!E,/4!f!G,/4E,/4C,/4 | %21
!f!{/F,,} F,>!p!G, =A,/B,/C/[B,_D]/ [F,A,C] z | %22
!f!{/F,,} =A,>[G,B,] [A,C]/[B,D]/[CE]/[_D=E]/ [F,CF] z | %23
!mp! .[E,E]/4.[C,C]/4.[=B,,=B,]/4.[C,C]/4"^cresc.".[E,E]/4.[C,C]/4.[D,D]/4.[_B,,_B,]/4 .[C,C]/4.[=A,,=A,]/4.[B,,B,]/4.[G,,G,]/4.[A,,A,]/4.[F,,F,]/4.[B,,B,]/4.[G,,G,]/4 .[C,C]/4.[A,,A,]/4.[D,D]/4.[B,,B,]/4.[E,E]/4.[C,C]/4.[F,F]/4.[D,D]/4 | %24
!f! .[G,G]/4.[E,E]/4.[C,C]/4.[D,D]/4.[E,E]/4.[C,C]/4.[=A,,=A,]/4.[B,,B,]/4 .[C,C]/4.[A,,A,]/4.[E,,E,]/4.[F,,F,]/4.[G,,G,]/4.[E,,E,]/4.[C,,C,]/4.[D,,D,]/4!f!"^dim." .[E,,E,]/4.[D,,D,]/4.[C,,C,]/4.[B,,,B,,]/4.[=A,,,=A,,]/4.[F,,F,]/4.[E,,E,]/4!p!.[C,,C,]/4 | %25
!pp!!ped! (6:4:6[B,,,B,,]/ B,,/D,/F,/B,/D/!ped-up!!ped! (3=A,/E,/_G,/A,- (3:2:2A,/A,-A,!ped-up! | %26
!ped! (6:4:6z/ C/E/_G/[I:staff -1]=A/c/!ped-up!!ped![I:staff +1] z2 [B,,=A,]2!ped-up! | %27
 [B,,B,][K:treble]!p! .d.=B.d.G.B | .c._B.=A.c.F.A | %29
 B[K:bass]!ped! .[DF].[B,D].[F,B,].[D,F,].[B,,D,]!ped-up! | %30
!p!!ped![I:staff -1] D/[I:staff +1]C/E/G,/!ped-up! B,2 =A,2 | %31
!ped! (3z/ [F,_A,]/=B,/ (3z/ [A,B,]/D/!ped-up! x4 | %32
 [D,,D,][=B,,,=B,,]/>[_A,,,_A,,]/ [G,,,G,,][E,,,E,,] [F,,,F,,][F,,,F,,] | %33
 .[B,,,B,,]/z/4.[F,,,F,,]/4.[B,,,B,,]/z/4.[F,,,F,,]/4 .[B,,,B,,]/z/4.[F,,,F,,]/4.[B,,,B,,]/z/4.[F,,,F,,]/4 [B,,,B,,]/ z/ x | %34
!p! .[B,,,B,,]/z/4.[F,,,F,,]/4.[B,,,B,,]/z/4.[F,,,F,,]/4 .[B,,,B,,]/z/4.[F,,,F,,]/4.[B,,,B,,]/z/4.[F,,,F,,]/4 .[B,,,B,,]/z/4.[F,,,F,,]/4.[B,,,B,,]/z/4.[F,,,F,,]/4 | %35
 .[B,,,B,,]/z/4.[F,,,F,,]/4.[B,,,B,,]/z/4.[F,,,F,,]/4 .[B,,,B,,]/z/4.[F,,,F,,]/4.[B,,,B,,]/z/4.[F,,,F,,]/4 [B,,,B,,]/ z/ x | %36
 .[B,,,B,,]/z/4.[F,,,F,,]/4.[B,,,B,,]/z/4.[F,,,F,,]/4 .[B,,,B,,]/z/4.[F,,,F,,]/4.[B,,,B,,]/z/4.[F,,,F,,]/4 .[B,,,B,,]/z/4.[F,,,F,,]/4.[B,,,B,,]/z/4.[F,,,F,,]/4 | %37
!p!!ped! .[B,,,B,,]/z/4.B,,/4.[D,,D,]/z/4.B,,/4"^cresc." .[F,,F,]/z/4!ped-up!!mp!.D,/4.[B,,B,]/z/4.F,,/4 .[D,,D,]/z/4.B,,/4.[F,,F,]/z/4.D,/4 | %38
"^sempre cresc."!ped! [A,,B,,A,]2- [A,,B,,A,]/z/4.D,/4.B,/z/4.F,/4!f! .D/z/4.[B,B]/4.F/z/4.D/4!ped-up! | %39
!ped! .[A,B,A]/z/4.[F,F]/4.[D,D]/z/4.[B,,B,]/4 .[A,,B,,A,]/!ped-up!z/4.[F,,B,,F,]/4.[D,,B,,D,]/z/4.[B,,B,]/4 .[A,,B,,A,]/z/4.[F,,B,,F,]/4.[D,,B,,D,]/z/4.[B,,,B,,]/4 | %40
 .[E,,E,] z z2 z3/4!mp! .B,/4.E/z/4.B,/4 |!p! G,G,G,G, [E,A,]/z/4.E/4.A/.[CA]/ | %42
 B,B,CD E/z/4B,/4 z/ A,/ | z3/4 B,/4B,/B,/ z3/4 A,/4G,/B,/ D,C,/=F,/ | %44
"^cresc."!ped! [B,,F,][B,,F,][B,,F,][B,,F,]!ped-up!!ff![G,,F,][G,,F,] | %45
!p! .[A,,,A,,]/z/4.C,/4.[A,,F,]/z/4.C,/4 .[A,,F,]/z/4.C,/4.[A,,F,]/z/4.C,/4 .[A,,F,] z | %46
!ped! z3/4 F,/4A,/z/4F,/4 A,/z/4F,/4!ped-up!G,/z/4E,/4 [A,,C,]/z/4[A,C]/4[A,C]/z/4[F,A,]/4 | %47
"^cresc."!ped! z3/4 [E,G,]/4B,/B,/ z3/4!ped-up! [=E,G,]/4B,/B,/ z3/4 B,/4B,/B,/ | %48
 .[E,,E,]/z/4.[B,,,B,,]/4.[E,,E,]/z/4.[B,,,B,,]/4 .[E,,E,]/z/4.[B,,,B,,]/4.[E,,E,]/z/4.[B,,,B,,]/4 .[E,,E,]/z/4.[B,,B,]/4.[E,E]/z/4.[B,,B,]/4 | %49
!ped! z/4 B,/4[I:staff -1][EB]/4[I:staff +1]B,/4_G,/4_G,,/4G,/4G,,/4!ped-up!!ped! z/4!ff! A,/4[I:staff -1][EA]/4[I:staff +1]A,/4F,/4F,,/4F,/4F,,/4!ped-up!!ped! z/4!ff! G,/4[E_G]/4G,/4E,/4E,,/4E,/4E,,/4!ped-up! | %50
!ped! z/4!ff! F,/4[B,F]/4F,/4_D,/4_D,,/4D,/4D,,/4!ped-up!!ped! z/4!ff! E,/4[_CE]/4E,/4_C,/4_C,,/4C,/4C,,/4!ped-up!!ped! z/4!ff! _D,/4[_G,_D]/4D,/4B,,/4B,,,/4B,,/4B,,,/4!ped-up! | %51
!fff!!ped! z/4!ff! _C,/4[A,_C]/4C,/4A,,/4A,,,/4A,,/4A,,,/4!ped-up!!ped! z/4!ff! B,,/4[_G,B,]/4B,,/4_G,,/4_G,,,/4G,,/4G,,,/4!ped-up!!ped! z/4!ff! B,,/4[F,A,]/4B,,/4F,,/4F,,,/4F,,/4F,,,/4!ped-up! | %52
!fff!!ped! z/4!ff! B,,/4[E,_G,]/4B,,/4_G,,/4_G,,,/4G,,/4G,,,/4!ped-up!!ped! z/4!ff! B,,/4[F,A,]/4B,,/4F,,/4F,,,/4F,,/4F,,,/4!ped-up!!ped! z/4!ff! _C,/4[E,G,]/4C,/4E,,/4E,,,/4E,,/4E,,,/4!ped-up! | %53
!p! [F,A,]2 x4 |[K:treble] F-F/4=E/4F/4_G/4 A-A/4B/4A/4G/4 F-F/4E/4F/4G/4 | %55
 A/ z/ z z/!ped! _D/4F/4A/4_c/4A/4F/4 D/4F/4D/4F/4A/4c/4A/4F/4!ped-up! | %56
!p! _D2- D/!ped!=D/4F/4A/4_c/4A/4F/4 D/4F/4D/4F/4A/4c/4A/4F/4!ped-up! | D z .[FA] z .[FA] z | %58
 A2 _c4 | _G/z/4_D/4G/z/4D/4 G/z/4D/4G/z/4D/4 G/z/4D/4G/z/4D/4 | [_GB][GB] [GB][GB] [GB][GB] | %61
[K:bass]!pp! .[B,,,B,,]/z/4.[F,,,F,,]/4.[B,,,B,,]/z/4.[F,,,F,,]/4 .[B,,,B,,]/z/4.[F,,,F,,]/4.[B,,,B,,]/z/4.[F,,,F,,]/4 .[B,,,B,,]/z/4.[F,,,F,,]/4.[B,,,B,,]/z/4.[F,,,F,,]/4 | %62
 [B,,,B,,] F E2 D2 | %63
!pp! .[E,,E,]/z/4.[B,,,B,,]/4.[E,,E,]/z/4.[B,,,B,,]/4 .[E,,E,]/z/4.[B,,,B,,]/4.[E,,E,]/z/4[B,,,B,,]/4 .G,2 | %64
!pp!!ped! (6:4:6E,,/B,,/E,/G,/B,/E/!ped-up!!ped! (6:4:6G/E/B,/G,/E,/B,,/!ped-up!!ped! (6:4:6E,,/C,/E,/A,/C/E/!ped-up! | %65
!ped! (6:4:6E,,/B,,/D,/F,/A,/B,/!ped-up!!ped! (6:4:6D/F/A/F/D/B,/!ped-up!!ped! (3G,/B,/E/A,/C/!ped-up! | %66
!ped! (6:4:6z/ G,/B,/E/B,/G,/!ped-up! (3D/B,/A,/(3E/B,/G,/ (3F/D/B,/(3:2:2EC/ | %67
"^cresc."!ped! (6:4:6F,/C/E/F/E/C/!ped-up!!ped! (6:4:6F,/B,/D/F/D/B,/!ped-up!!ped! (6:4:6F,/D,/F,/=B,/D/F/!ped-up! | %68
!ped! (3A,,/C,/F,/(3A,,/C,/F,/!ped-up!!ped! (3A,,/C,/F,/(3A,,/C,/F,/!ped-up!!ped! (3A,,/C,/F,/(3A,,/C,/F,/!ped-up! | %69
!ped! (6:4:6B,,/F,/A,/B,,/F,/A,/ (3B,,/F,/A,/!ped-up!(3C,/E,/G,/ (3A,,/C,/F,/(3C,/F,/A,/ | %70
!ped! (3z/ [E,G,]/[G,B,]/"^cresc." (3z/ [E,G,]/!mp![G,B,]/ (3z/ [E,G,]/[G,B,]/!ped-up! (3z/ [=E,G,]/[G,B,]/!ped! (3z/ [F,A,]/!f![A,B,]/ (3z/ [D,F,]/[F,A,]/!ped-up! | %71
!ped! z/4 [B,,B,]/4[G,,G,]/4[B,,B,]/4[E,E]/4!f![G,G]/4[E,E]/4[B,,B,]/4 z/4 [B,,B,]/4[G,,G,]/4[B,,B,]/4[E,E]/4!f![G,G]/4[E,E]/4[B,,B,]/4 z/4 [B,,B,]/4[G,,G,]/4[B,,B,]/4[E,E]/4!f![G,G]/4[E,E]/4[B,,B,]/4!ped-up! | %72
!f!!ped! [E,,E,]/4!p! D/4[A,B,]/4D/4 z/4 D/4[A,B,]/4D/4 z/4 D/4[A,B,]/4D/4 z/4 D/4[A,B,]/4D/4 z/4 D/4[A,B,]/4D/4 z/4 D/4[A,B,]/4D/4!ped-up! | %73
!ped! z/4 [B,,B,]/4[G,,G,]/4[B,,B,]/4[E,E]/4!f![G,G]/4[E,E]/4[B,,B,]/4 z/4 [B,,B,]/4[G,,G,]/4[B,,B,]/4[E,E]/4!f![G,G]/4[E,E]/4[B,,B,]/4 z/4 [B,,B,]/4[G,,G,]/4[B,,B,]/4[E,E]/4!f![G,G]/4[E,E]/4[B,,B,]/4!ped-up! | %74
!f!!ped! [C,,C,]/4!p! B,/4[=E,G,]/4B,/4 z/4 B,/4[E,G,]/4B,/4 z/4 B,/4[E,G,]/4B,/4 z/4 B,/4[E,G,]/4B,/4 z/4 B,/4[E,G,]/4B,/4 z/4 B,/4[E,G,]/4B,/4!ped-up! | %75
!ped! z/4 F,/4C,/4F,/4A,/4C/4A,/4F,/4 z/4 F,/4C,/4F,/4A,/4C/4A,/4F,/4 z/4 F,/4C,/4F,/4A,/4C/4A,/4F,/4!ped-up! | %76
 B,>!p!C D/E/F/[E_G]/ [DF] z |!ped! [B,D]>!ped-up!!p![CE][K:treble] [DF]/[EG]/[FA]/[_G=A]/ [FB] z | %78
[K:bass]"^cresc." .[A,A]/4.[F,F]/4.[=E,=E]/4.[F,F]/4.[A,A]/4.[F,F]/4.[G,G]/4.[_E,_E]/4 .[F,F]/4.[D,D]/4.[E,E]/4.[C,C]/4.[D,D]/4.[B,,B,]/4.[E,E]/4.[C,C]/4 .[F,F]/4.[D,D]/4.[E,E]/4.[C,C]/4.[A,A]/4.[F,F]/4.[B,,B,]/4.[G,,G,]/4 | %79
!f! .[C,C]/4.[A,,A,]/4.[F,,F,]/4.[G,,G,]/4.[A,,A,]/4.[F,,F,]/4.[D,,D,]/4.[E,,E,]/4 .[F,,F,]/4.[D,,D,]/4.[A,,A,]/4.[B,,B,]/4.[C,C]/4.[B,,B,]/4.[A,,A,]/4.[G,,G,]/4"^dim." .[F,,F,]/4.[E,,E,]/4.[D,,D,]/4.[C,,C,]/4.[B,,,B,,]/4.A,,/4.G,,/4!p!.F,,/4 | %80
!pp!!ped! (6:4:6z/ B,,/E,/G,/B,/E/!ped-up!!ped! (6:4:6z/ E,/F,/A,/_C/D/ (6:4:6z/ A,/C/D/F/G/!ped-up! | %81
[K:treble]!ped! A2!ped-up![K:bass]!ped! D4!ped-up! |!p! [E,E][K:treble]!p! .g.=e.g.c.e | %83
 .f._e.d.f.B.d |!ped! e[K:bass] .[EG].[B,E].[G,B,].[E,G,].[E,B,E]!ped-up! | %85
!p!!ped! [A,,A,][CF]!ped-up!!ped! [B,,B,][EG]!ped-up!!ped! [B,,B,][DF]!ped-up! | %86
!ped! [B,,,B,,][B,,B,] [G,,G,][=E,,=E,] [_D,,_D,][B,,B,]!ped-up! | %87
 [G,,G,][=E,,=E,]/>[_D,,_D,]/ [C,,C,][A,,,A,,] (3z/ _E,/G,/ (3z/ =D,/A,/ | %88
!p! [E,G,]/ z/4 .B,,/4.[E,,E,]/z/4.B,,/4 .[E,,E,]/z/4.B,,/4.[E,,E,]/z/4.B,,/4 .[E,,E,]/ z/4 B,,/4 E,/ z/ | %89
 .[E,,E,]/z/4.B,,/4.[E,,E,]/z/4.B,,/4 .[E,,E,]/z/4.B,,/4.[E,,E,]/z/4.B,,/4 .[E,,E,]/z/4.B,,/4.[E,,E,]/z/4.B,,/4 | %90
 .[E,,E,]/z/4.B,,/4.[E,,E,]/z/4.B,,/4 .[E,,E,]/z/4.B,,/4.[E,,E,]/z/4.B,,/4 .[E,,E,]/ z/ z | %91
 .[E,,E,]/z/4.B,,/4.[E,,E,]/z/4.B,,/4 .[E,,E,]/z/4.B,,/4.[E,,E,]/z/4.B,,/4 .[E,,E,]/z/4.B,,/4.[E,,E,]/z/4.B,,/4 | %92
 [E,,E,] z z2!ped! !arpeggio![E,,E,G,]!ped-up! z | %93
!ped! !arpeggio![E,,E,G,]!ped-up! z z2 [E,,B,,E,] z | %94
 E,/4F,/4E,/4D,/4E,/4F,/4G,/4E,/4 B,,/4C,/4D,/4E,/4D,/4C,/4B,,/4A,,/4!p!!>(! G,,/4A,,/4B,,/4C,/4B,,/4A,,/4G,,/4!>)!!pp!F,,/4 | %95
!pp!!ped! z2 [G,B,]2!ped-up! [A,C]2 | [B,D]2 [CE][DF] [E,B,E][A,,E,A,C] | %97
!ped! B,,E,/4G,/4B,/4E/4!ped-up! z G,/4B,/4E/4G/4 z B,/4E/4[I:staff -1]G/4B/4 |[I:staff +1] z6 | %99
 z2 z/4 .D/4.C/4.B,/4"^cresc.".A,/4!pp!.G,/4.F,/4.E,/4 .[D,,D,]/4.[C,,C,]/4.[B,,,B,,]/4.[A,,,A,,]/4.[G,,,G,,]/4.[F,,,F,,]/4.[E,,,E,,]/4.[D,,,D,,]/4 | %100
!ped! .[C,,,C,,]/4.[D,,,D,,]/4.[E,,,E,,]/4.[F,,,F,,]/4.[G,,,G,,]/4.[A,,,A,,]/4.[B,,,B,,]/4.[C,,C,]/4!ped-up!!ped! .[D,,D,]/4.[E,,E,]/4.[F,,F,]/4.[G,,G,]/4.[A,,A,]/4.[B,,B,]/4.[C,C]/4.[D,D]/4!ped-up! .[E,G,B,E] z | %101
 z!pp! E,,/z/4B,,,/4 E,,/z/4B,,,/4E,,/z/4B,,,/4 E,,/z/4B,,,/4E,,/z/4B,,,/4 | %102
!p!!ped! B,,,/8B,,/8B,,,/8"^cresc."B,,/8B,,,/8B,,/8B,,,/8B,,/8B,,,/8B,,/8B,,,/8B,,/8B,,,/8B,,/8B,,,/8B,,/8B,,,/8B,,/8B,,,/8B,,/8B,,,/8B,,/8B,,,/8B,,/8B,,,/8B,,/8B,,,/8B,,/8B,,,/8B,,/8B,,,/8B,,/8!ff! [B,,,B,,]!ped-up! z | %103
!fff! [E,,G,,B,,E,] z z2 z2 |] %104
V:3
 x6 | z3/4!pp! E/4G/G/ z3/4!pp! E/4B/B/ z3/4!pp! E/4A/A/ | %2
 z3/4!pp! D/4F/F/ z3/4 E/4F/B,/ z3/4 B,/4C/C/ | z3/4!pp! B,/4B,/B,/ z3/4 A,/4G,/B,/ z3/4 G,/4E/E/ | %4
 z3/4!pp! C/4E/!mp!E/ z3/4!p! B,/4D/D/ z3/4!p! =B,/<D/C/4 | x6 | x6 | z [EG]2 [=EG] [FA][DA] | x6 | %9
 x6 | x4 G/>B/[Ac]/>F/ | z BBB Be | x4 z3/4!p! =B/4B/c/ | x6 | x6 | %15
 x3 [Ac']/>[Bb]/ [Bb][cc']/>[Bb]/ | x6 | x6 | x6 | x6 | x6 | x6 | x6 | x6 | x6 | %25
 B2 z!pp! (3z/ C/E/ (3:2:2_GC/(3E/!pp!G/=A/ | x2 z2 [_Gc]2 | x4 (3z/!pp! f/_e/ (3z/ e/d/ | %28
 (3e/!pp!d/e/ (3z/ e/g/ (3z/ g/f/ (3z/ f/e/ (3z/!pp! e/d/ (3z/ d/c/ | %29
 (3d/!pp!^c/d/ z x2 x (3z/ D/F/ | G x (3z/ c/B/ (3z/ d/F/ (3z/ B/=A/ (3z/ c/F/ | %31
 F F (3z/ [=B,D]/F/ (3z/ [DF]/=B/ (3z/ [FB]/d/ (3z/ [Bd]/f/ | %32
 (3z/ [F=B]/d/ (3z/ [FB]/d/ (6:4:6z/ E/D/E/F/G/ (3z/ D/F/ (3z/ F/E/ | %33
 D/4!pp!C/4B,/4=A,/4B,/4C/4D/4C/4[K:bass] B,/4C/4D/4B,/4F,/4!pp!=A,/4B,/4F,/4 D,/4!pp!E,/4F,/4D,/4[I:staff +1]B,,/4!pp!C,/4D,/4B,,/4 | %34
[I:staff -1][K:treble] C3 C =A,/4!pp!B,/4C/4A,/4F,/4G,/4A,/4F,/4 | %35
 B/4!pp!c/4B/4=A/4B/4c/4d/4c/4 B/4c/4d/4c/4F/4!pp!=A/4B/4F/4 D/4!pp!E/4F/4D/4[I:staff +1]B,/4!pp!C/4D/4B,/4 | %36
[I:staff -1] c3 c =A,/4!pp!B,/4C/4A,/4F,/4G,/4A,/4F,/4 | x6 | x6 | x6 | x6 | %41
 z3/4!pp! E/4.G/.G/ z3/4!pp! E/4.B/.B/ z2 | z3/4!pp! D/4.F/.F/ (3:2:4z E/F x/ z C | %43
 x4 z3/4 B,/4_E/E/ | z3/4 C/4!mp!E/E/ z3/4!mf! B,/4D/D/ z3/4 D/4F/F/ | x6 | x6 | %47
 z [EG]2 [=EG][F_A]D | x6 | x6 | x6 | x6 | x6 | x6 | x6 | x6 | x6 | x6 | x6 | x6 | x6 | %61
 [FAB] x x2 x2 | [FB]!pp![AB] [_GB]!pp![GB] [FB]!pp![FB] | x4 G2 | x4 [ca]2 | %65
 [ABdf]2 z [Bd][Be] [Ae]/c/ | [GB][GB] [AB][GB] B(3:2:2G=A/ | x6 | x6 | x6 | x6 | x6 | x6 | x6 | %74
 x6 | z/4 F/4C/4F/4A/4!f!c/4A/4F/4 z/4 F/4C/4F/4A/4!f!c/4A/4F/4 z/4 F/4C/4F/4A/4!f!c/4A/4c/4 | %76
 A/4!p!f/4=e/4f/4a/4f/4g/4_e/4 f/4d/4e/4c/4d/4B/4c/4=A/4 B/4d/4e/4f/4g/4_a/4b/4=b/4 | %77
 c/4!p!a/4g/4a/4c'/4a/4b/4g/4 a/4f/4g/4e/4f/4d/4e/4c/4 d/4b/4B/4b/4B/4b/4B/4b/4 | %78
 .a/4.f/4.=e/4.f/4.a/4.f/4g/4._e/4 .f/4.d/4.e/4.c/4.d/4.B/4.e/4.c/4 .f/4.d/4.g/4.e/4.a/4.f/4.B/4.[Gg]/4 | %79
 x6 | E z [A_c]2 z [Ac] | [_cd]2 [cf]4 | [Bgb] x x2 (3z/ b/_a/ (3z/ a/g/ | %83
 a/ x/ x x2 (3z/ a/g/ (3z/ g/f/ | g/ x/ x x2 (3z/ B/e/ (3z/ e/g/ | %85
 (3g/g/f/ (3z/ a/c/ (3x/ f/e/ (3z/ g/B/ (3x/ e/d/ (3z/ f/B/ | %86
 (3z/!pp! B,/_D/ (3z/ D/=E/ (3z/ [DE]/G/ (3z/ [EG]/B/ (3z/!pp! B/=e/ (3z/ [Be]/g/ | %87
 (3z/ B/g/ (3z/ B/g/ x4 | %88
 E/4F/4E/4D/4E/4F/4G/4F/4 E/4F/4G/4E/4B,/4D/4E/4B,/4 G,/4A,/4B,/4G,/4[I:staff +1]E,/4F,/4G,/4E,/4 | %89
[I:staff -1] F3 F D/4E/4F/4D/4B,/4C/4D/4B,/4 | %90
 G x e/4f/4g/4e/4B/4d/4e/4B/4 G/4A/4B/4G/4[I:staff +1]E/4F/4G/4E/4 | %91
[I:staff -1] f2 f/4g/4a/4f/4d/4e/4f/4d/4 B/4c/4d/4e/4f/4g/4a/4d/4 | %92
 e/4f/4e/4d/4e/4f/4g/4e/4 B/4c/4B/4=A/4B/4d/4e/4B/4 E x | x6 | [GB] z z2 z2 | x6 | x6 | x6 | x6 | %99
 x6 | x6 | x6 | x6 | x6 |] %104
V:4
 x6 | E,6- | E,4 E,A,, | B,,4- B,,B,, | x4 G,,G,, | A,,/ z/ A,,/ z/ A,,/ z/ A,,/ z/ A,, z | %6
 B,,B,,B,,C, x2 | B,,2 B,,2 [B,,F,A,][B,,F,A,] | x6 | [E,,E,] z E,2 E,2 | [E,A,]2 [E,A,]2 x2 | %11
 [B,,G,][B,,G,] [B,,F,][B,,E,] B,,B,, | x4 G,,G,, | x4 .A,, z | !arpeggio![B,,,B,,] B,,B,,C, x2 | %15
 B,,2 B,,2 [B,,F,A,]2 | x2 E,, z E,, z |{/E,,} E,E,E,E,E,E, | x2 E,, z E,, z | %19
{/G,,,} G,,G,G,G,G,G, | C,, z C,, z C,, z | F,2 F,2 x2 | F,4 x2 | x6 | x6 | x6 | %26
 [B,,E,_G,=A,]/ z/ z x4 | x[K:treble] x5 | x6 | x[K:bass] x5 | [E,,E,] z .F,.[DF] .[E,F,].[CF] | %31
 D,F,.[D,D]!mp!"^cresc.".[=B,,=B,].[_A,,_A,]!mf!.[F,,F,] | x6 | x6 | x6 | x6 | x6 | x6 | x6 | x6 | %40
 x6 | E,4 x2 | E,4- E,A,, | G,2 F,E, B,,B,, | x6 | x6 |{/B,,,} B,,B,, B,,C, x2 | %47
 B,,2 B,,2 [B,,F,A,]B,, | x6 | [_G,,_G,]2 [F,,F,]2 [E,,E,]2 | [_D,,_D,]2 [_C,,_C,]2 [B,,,B,,]2 | %51
 [A,,,A,,]2 [_G,,,_G,,]2 [F,,,F,,]2 | [_G,,,_G,,]2 [F,,,F,,]2 [E,,,E,,]2 | [_D,,,_D,,] x x4 | %54
[K:treble] x6 | x6 | x6 | x6 | F4 [FA]2 | x6 | x6 |[K:bass] x6 | x6 | %63
 x4 .E,/z/4.B,,/4.E,/z/4.B,,/4 | x6 | x4 E,A,, | B,,2 F,E, D,(3:2:2C,F,/ | B,, z B,, z G,, z | %68
 A,,,A,,, A,,,A,,, A,,,A,,, | B,,,B,,, B,,, C,A,,F,, | B,,B,,B,,B,,B,,B,, | %71
 [E,,E,] x [E,,E,] x [E,,E,] x | x E,E,E,E,E, | [E,,E,] x [E,,E,] x [E,,E,] x | x C,C,C,C,C, | %75
 [F,,F,] x [F,,F,] x [F,,F,] x | B,,2 x4 | x4[K:treble] B,/.B,/.B,/.B,/ |[K:bass] x6 | x6 | %80
 E,, x D x F x |[K:treble] (6:4:6z/ E/F/A/_c/A/[K:bass] E,4 | x[K:treble] x5 | x6 | x[K:bass] x5 | %85
 x6 | x6 | x4 [B,,,B,,]B,, | x6 | x6 | x6 | x6 | x6 | x6 | x6 | z2 E,4- | E,3 E, x2 | x6 | x6 | %99
 x6 | x6 | x6 | x6 | x6 |] %104
V:5
 x6 | x6 | x6 | x6 | x6 | x6 | x6 | x6 | x6 | x6 | x6 | x6 | x6 | x6 | x6 | x6 | x6 | x6 | x6 | %19
 x6 | x6 | x6 | x6 | x6 | x6 | x6 | x6 | x6 | x6 | x4 x (3:2:2z/ D | x6 | x6 | x6 | x2[K:bass] x4 | %34
[K:treble] x6 | x6 | x6 | x6 | x6 | x6 | x6 | x6 | x6 | x6 | x6 | x6 | x6 | x6 | x6 | x6 | x6 | %51
 x6 | x6 | x6 | x6 | x6 | x6 | x6 | x6 | x6 | x6 | x6 | x6 | x6 | x6 | x6 | x6 | x6 | x6 | x6 | %70
 x6 | x6 | x6 | x6 | x6 | x6 | x6 | x6 | x6 | x6 | x6 | x6 | x6 | x6 | x4 x G- | G/F/A/C/ x4 | x6 | %87
 x6 | x6 | x6 | x6 | x6 | x6 | x6 | x6 | x6 | x6 | x6 | x6 | x6 | x6 | x6 | x6 | x6 |] %104
V:6
 x6 | x6 | x6 | x6 | x6 | x6 | x6 | x6 | x6 | x6 | x6 | x6 | x6 | x6 | x6 | x6 | x6 | x6 | x6 | %19
 x6 | x6 | x6 | x6 | x6 | x6 | x6 | x6 | x[K:treble] x5 | x6 | x[K:bass] x5 | x6 | x6 | x6 | x6 | %34
 x6 | x6 | x6 | x6 | x6 | x6 | x6 | x6 | x6 | B,,4 x2 | x6 | x6 | x6 | x6 | x6 | x6 | x6 | x6 | %52
 x6 | x6 |[K:treble] x6 | x6 | x6 | x6 | x6 | x6 | x6 |[K:bass] x6 | x6 | x6 | x6 | x6 | x6 | x6 | %68
 x6 | x6 | x6 | x6 | x6 | x6 | x6 | x6 | x6 | x2[K:treble] x4 |[K:bass] x6 | x6 | x6 | %81
[K:treble] x2[K:bass] x4 | x[K:treble] x5 | x6 | x[K:bass] x5 | x6 | x6 | x6 | x6 | x6 | x6 | x6 | %92
 x6 | x6 | x6 | E,,6 | x6 | x6 | x6 | x6 | x6 | x6 | x6 | x6 |] %104

